packages/icons/src/person.svg

<svg width="15" height="15" viewBox="0 0 15 15" fill="none" xmlns="http://www.w3.org/2000/svg">
  <path
    fill-rule="evenodd"
    clip-rule="evenodd"
    d="M7.5 0.875C5.49797 0.875 3.875 2.49797 3.875 4.5C3.875 6.15288 4.98124 7.54738 6.49373 7.98351C5.2997 8.12901 4.27557 8.55134 3.50407 9.31167C2.52216 10.2794 2.02502 11.72 2.02502 13.5999C2.02502 13.8623 2.23769 14.0749 2.50002 14.0749C2.76236 14.0749 2.97502 13.8623 2.97502 13.5999C2.97502 11.8799 3.42786 10.7206 4.17091 9.9883C4.91536 9.25463 6.02674 8.87499 7.49995 8.87499C8.97317 8.87499 10.0846 9.25463 10.8291 9.98831C11.5721 10.7206 12.025 11.8799 12.025 13.5999C12.025 13.8623 12.2376 14.0749 12.5 14.0749C12.7623 14.075 12.975 13.8623 12.975 13.6C12.975 11.72 12.4778 10.2794 11.4959 9.31166C10.7244 8.55135 9.70025 8.12903 8.50625 7.98352C10.0187 7.5474 11.125 6.15289 11.125 4.5C11.125 2.49797 9.50203 0.875 7.5 0.875ZM4.825 4.5C4.825 3.02264 6.02264 1.825 7.5 1.825C8.97736 1.825 10.175 3.02264 10.175 4.5C10.175 5.97736 8.97736 7.175 7.5 7.175C6.02264 7.175 4.825 5.97736 4.825 4.5Z"
    fill="currentColor"
  />
</svg>

<svg xmlns="http://www.w3.org/2000/svg" width="15" height="15" fill="none"><path fill="currentColor" fill-rule="evenodd" d="M7.5.875a3.625 3.625 0 0 0-1.006 7.109c-1.194.145-2.218.567-2.99 1.328-.982.967-1.479 2.408-1.479 4.288a.475.475 0 1 0 .95 0c0-1.72.453-2.88 1.196-3.612.744-.733 1.856-1.113 3.329-1.113s2.585.38 3.33 1.113c.742.733 1.195 1.892 1.195 3.612a.475.475 0 1 0 .95 0c0-1.88-.497-3.32-1.48-4.288-.77-.76-1.795-1.183-2.989-1.328A3.627 3.627 0 0 0 7.5.875M4.825 4.5a2.675 2.675 0 1 1 5.35 0 2.675 2.675 0 0 1-5.35 0" clip-rule="evenodd"/></svg>
